COLOR/action 16/16/username-copy.svg

<svg height="16" width="16" xmlns="http://www.w3.org/2000/svg"><circle cx="8" cy="8" fill="#1a7fd4" r="8" stroke-width="1.066667"/><g fill="none" stroke="#fff" stroke-dashoffset="1" stroke-linejoin="round" stroke-width=".666667" transform="matrix(1.4222222 0 0 1.4222222 1.634557 2.042435)"><ellipse cx="4.456809" cy="2.855579" rx="1.231061" ry="1.333333" stroke-linecap="round"/><path d="m1.9757034 6.8555792c-.028-1.130474.6250003-1.6666676 2.5000014-1.6666676 1.875001 0 2.528008.4941936 2.5000013 1.6666676z"/></g><g stroke-width="1.066667"><path d="m8 0a8 8 0 0 0 -8 8 8 8 0 0 0 .0104167.30625 8 8 0 0 1 7.9895833-7.77291667 8 8 0 0 1 7.989583 7.69374997 8 8 0 0 0 .010417-.2270833 8 8 0 0 0 -8-8z" fill="#fff" opacity=".3"/><path d="m15.989583 7.69375a8 8 0 0 1 -7.989583 7.772917 8 8 0 0 1 -7.98958334-7.6937503 8 8 0 0 0 -.01041666.2270833 8 8 0 0 0 8 8 8 8 0 0 0 8-8 8 8 0 0 0 -.01042-.30625z" fill="#060606" opacity=".2"/></g></svg>

<?xml version="1.0" encoding="UTF-8" standalone="no"?>
<svg
   xmlns:dc="http://purl.org/dc/elements/1.1/"
   xmlns:cc="http://creativecommons.org/ns#"
   xmlns:rdf="http://www.w3.org/1999/02/22-rdf-syntax-ns#"
   xmlns:svg="http://www.w3.org/2000/svg"
   xmlns="http://www.w3.org/2000/svg"
   xmlns:sodipodi="http://sodipodi.sourceforge.net/DTD/sodipodi-0.dtd"
   xmlns:inkscape="http://www.inkscape.org/namespaces/inkscape"
   height="16"
   width="16"
   version="1.1"
   id="svg14"
   sodipodi:docname="username-copy.svg"
   inkscape:version="0.92.4 (5da689c313, 2019-01-14)">
  <metadata
     id="metadata20">
    <rdf:RDF>
      <cc:Work
         rdf:about="">
        <dc:format>image/svg+xml</dc:format>
        <dc:type
           rdf:resource="http://purl.org/dc/dcmitype/StillImage" />
      </cc:Work>
    </rdf:RDF>
  </metadata>
  <defs
     id="defs18" />
  <sodipodi:namedview
     pagecolor="#ffffff"
     bordercolor="#666666"
     borderopacity="1"
     objecttolerance="10"
     gridtolerance="10"
     guidetolerance="10"
     inkscape:pageopacity="0"
     inkscape:pageshadow="2"
     inkscape:window-width="798"
     inkscape:window-height="480"
     id="namedview16"
     showgrid="false"
     inkscape:zoom="14.75"
     inkscape:cx="0.30508475"
     inkscape:cy="8"
     inkscape:window-x="0"
     inkscape:window-y="27"
     inkscape:window-maximized="0"
     inkscape:current-layer="svg14" />
  <circle
     cx="8"
     cy="8"
     r="8"
     id="circle2"
     style="fill:#1a7fd4;stroke-width:1.06666672" />
  <g
     transform="matrix(1.4222222,0,0,1.4222222,1.6345568,2.0424352)"
     id="g8"
     style="fill:none;stroke:#ffffff;stroke-width:0.66666698;stroke-linejoin:round;stroke-dashoffset:1">
    <ellipse
       cx="4.456809"
       cy="2.8555789"
       rx="1.231061"
       ry="1.333333"
       id="ellipse4"
       style="stroke-linecap:round" />
    <path
       d="m 1.9757034,6.8555792 c -0.028,-1.130474 0.6250003,-1.6666676 2.5000014,-1.6666676 1.875001,0 2.528008,0.4941936 2.5000013,1.6666676 z"
       id="path6"
       inkscape:connector-curvature="0" />
  </g>
  <path
     d="M 8,0 A 8,8 0 0 0 0,8 8,8 0 0 0 0.0104167,8.30625 8,8 0 0 1 8,0.53333333 8,8 0 0 1 15.989583,8.2270833 8,8 0 0 0 16,8 8,8 0 0 0 8,0 Z"
     id="path10"
     inkscape:connector-curvature="0"
     style="opacity:0.3;fill:#ffffff;stroke-width:1.06666672" />
  <path
     d="M 15.989583,7.69375 A 8,8 0 0 1 8,15.466667 8,8 0 0 1 0.01041666,7.7729167 8,8 0 0 0 0,8 8,8 0 0 0 8,16 8,8 0 0 0 16,8 8,8 0 0 0 15.98958,7.69375 Z"
     id="path12"
     inkscape:connector-curvature="0"
     style="opacity:0.2;fill:#060606;stroke-width:1.06666672" />
</svg>
